**kern	**kern	**dynam
*part1	*part1	*part1
*staff2	*staff1	*
*I"Piano	*	*
*clefF4	*clefG2	*
*k[f#]	*k[f#]	*
=1	=1	=1
4GG	(8BL 8g	???
.	8d 8a	.
8D 8G	8gJ 8b	.
=	=	=
!	!LO:TX:a:i:t=cresc.	!
4GG	8bL 8dd	.
.	8a 8cc	.
8D 8G	8gJ) 8b	.
=	=	=
4CC	(8eL 8cc	.
.	8g 8dd	.
8E 8c	8ccJ 8ee	.
=	=	=
4CC	8eeL 8gg	.
.	8dd 8ff#	.
8E 8c	8ccJ) 8ee	.
=	=	=
!	!	!LO:DY:a
4GG	(8bL 8dd	<
.	8g 8b	.
8G 8B	8bJ) 8dd	.
=	=	=
*	*^	*
4EE	(8eeL	4.g	.
.	8b	.	.
8E 8B	8eeJ)	.	[[
=	=	=	=
!	!	!	!LO:DY:a
4BBB	(8dd#XL 8ff#	4.f#	f
.	8b	.	.
8F# 8B	[8dd#J	.	.
=	=	=	=
4BBB	8dd#L] 8ff#	4.f#	.
.	8b	.	.
8F# 8B	8dd#XJ)	.	.
*	*v	*v	*
=	=	=
*-	*-	*-
!!!system-decoration: {(s1,s2)}
